X: 1
T: l'Air (de la) mignonne
C: Simon Riopel
Z: 2018 John Chambers <jc:trillian.mit.edu>
S: https://www.youtube.com/watch?v=Nedymlq5D1s
S: https://www.youtube.com/watch?v=RoSjIIHNiP8
M: 2/4
L: 1/8
K: A
EAB |\
"A"c2-{c}ce cBAB | "(F#m)"c2-{c}ce cBAB |\
"D"F2-{F}FB "A"E2-{E}Ec |1 "E7"BAGA B :|2 "E7"BAGB "A"A |]
Ace |:\
"D"f2-{f}fa fece |  "F#m" f2-{f}fa fecA |\
"D"F2-{F}FA "A"E2-{E}Ec |1 "E7"BAGA BBce :|2 "E7"BAGB "A"A |]
